X: 1
T: Polons "Mollo", sexdregasamlingen del 3 nr 48
B: Sexdregasamlingen del 3 nr 48
O: Sexdrega, Vstergtland
R: Slngpolska
Z: 2008-05-31 av Nils L
M: 3/4
K: Dm
L: 1/16
d2^cd e2de f2ed | e2d2 c2B2 c2A2 | d2^cd e2de f2ed | e2d^c d8 ::
f2ed g2fe a4 | f2ed c2de A4 | G2FE F2ED A4 | F2ED C2DE A,4 | 
f2a2 e2g2 d2f2 | e2d^c d8 :|
